X: 100431
T: THE A1 JIG
C: By Wm. Findlay, Broxburn
R: jig
B: K\"ohler's Violin Repository, v.3, 1885 p.274 #3
F: http://www.archive.org/details/klersviolinrepos03rugg
Z: 2012 John Chambers <jc:trillian.mit.edu>
M: 6/8
L: 1/8
K: A
uA |\
EAA cBA | aAA gAA | fed cBA | GBB (.B2.e) |\
EAA cBA | aAA gAA | fed cBA | EFG A2 :|
|: ue |\
ec'b c'af | efe ecA | EFG ABc | edc (.B2.e) |\
ec'b c'af | efe ecA | Bcd ecA | EFG A2 :|

%%sep 2 1 500

